public/img/after-sales-service.svg

<svg width="50" height="42" viewBox="0 0 50 42" fill="none" xmlns="http://www.w3.org/2000/svg">
<path d="M16.25 11C16.25 14.2031 17.8906 17.0156 20.625 18.5781C23.2812 20.2188 26.6406 20.2188 29.375 18.5781C32.0312 17.0156 33.75 14.2031 33.75 11C33.75 7.875 32.0312 5.0625 29.375 3.5C26.6406 1.85938 23.2812 1.85938 20.625 3.5C17.8906 5.0625 16.25 7.875 16.25 11ZM35 11C35 14.5938 33.0469 17.875 30 19.6719C26.875 21.4688 23.0469 21.4688 20 19.6719C16.875 17.875 15 14.5938 15 11C15 7.48438 16.875 4.20312 20 2.40625C23.0469 0.609375 26.875 0.609375 30 2.40625C33.0469 4.20312 35 7.48438 35 11ZM7.5 9.75V21.2344C7.5 22.4062 7.8125 23.4219 8.51562 24.2812C8.59375 23.5781 8.82812 22.9531 9.375 22.3281C10.7031 20.8438 13.0469 20.6875 14.4531 22.1719L21.7188 29.4375C22.9688 30.6875 23.75 32.4062 23.75 34.2031V40.375C23.75 40.7656 23.4375 41 23.125 41C22.7344 41 22.5 40.7656 22.5 40.375V34.2031C22.5 32.7188 21.875 31.3125 20.8594 30.2969L13.5938 23.0312C12.6562 22.0938 11.1719 22.1719 10.3125 23.1875C9.53125 24.0469 9.60938 25.375 10.3906 26.2344L14.7656 30.6094L15.3906 31.2344C15.625 31.4688 15.625 31.8594 15.3906 32.0938C15.1562 32.3281 14.7656 32.3281 14.5312 32.0938L13.9062 31.4688L9.53125 27.0938L7.96875 25.6094C6.875 24.4375 6.25 22.875 6.25 21.2344V9.75C6.25 8.42188 5.07812 7.25 3.75 7.25C2.34375 7.25 1.25 8.42188 1.25 9.75V27.9531C1.25 29.75 1.95312 31.4688 3.20312 32.7969L10.3906 39.9844C10.625 40.2188 10.625 40.6094 10.3906 40.8438C10.1562 41.0781 9.76562 41.0781 9.53125 40.8438L2.34375 33.6562C0.859375 32.1719 0 30.0625 0 27.9531V9.75C0 7.71875 1.64062 6 3.75 6C5.78125 6 7.5 7.71875 7.5 9.75ZM46.25 6C48.2812 6 50 7.71875 50 9.75V27.9531C50 30.0625 49.1406 32.1719 47.5781 33.6562L40.3906 40.8438C40.1562 41.0781 39.7656 41.0781 39.5312 40.8438C39.2969 40.6094 39.2969 40.2188 39.5312 39.9844L46.7188 32.7969C47.9688 31.4688 48.75 29.75 48.75 27.9531V9.75C48.75 8.42188 47.5781 7.25 46.25 7.25C44.8438 7.25 43.75 8.42188 43.75 9.75V21.2344C43.75 22.875 43.0469 24.4375 41.9531 25.6094L40.3906 27.0938L36.0156 31.4688L35.3906 32.0938C35.1562 32.3281 34.7656 32.3281 34.5312 32.0938C34.2969 31.8594 34.2969 31.4688 34.5312 31.2344L35.1562 30.6094L39.5312 26.2344C40.3906 25.375 40.3906 24.0469 39.6094 23.1875C38.8281 22.1719 37.2656 22.0938 36.3281 23.0312L29.0625 30.2969C28.0469 31.3125 27.5 32.7188 27.5 34.2031V40.375C27.5 40.7656 27.1875 41 26.875 41C26.4844 41 26.25 40.7656 26.25 40.375V34.2031C26.25 32.4062 26.9531 30.6875 28.2031 29.4375L35.4688 22.1719C36.875 20.6875 39.2188 20.8438 40.5469 22.3281C41.0938 22.9531 41.3281 23.5781 41.4062 24.2812C42.1094 23.4219 42.5 22.4062 42.5 21.2344V9.75C42.5 7.71875 44.1406 6 46.25 6Z" fill="#1A75BB"/>
</svg>

<svg xmlns="http://www.w3.org/2000/svg" width="50" height="42" fill="none"><path fill="#1A75BB" d="M16.25 11c0 3.203 1.64 6.016 4.375 7.578 2.656 1.64 6.016 1.64 8.75 0 2.656-1.562 4.375-4.375 4.375-7.578 0-3.125-1.719-5.937-4.375-7.5-2.734-1.64-6.094-1.64-8.75 0-2.734 1.563-4.375 4.375-4.375 7.5M35 11c0 3.594-1.953 6.875-5 8.672-3.125 1.797-6.953 1.797-10 0-3.125-1.797-5-5.078-5-8.672 0-3.516 1.875-6.797 5-8.594 3.047-1.797 6.875-1.797 10 0 3.047 1.797 5 5.078 5 8.594M7.5 9.75v11.484c0 1.172.313 2.188 1.016 3.047a3.38 3.38 0 0 1 .859-1.953c1.328-1.484 3.672-1.64 5.078-.156l7.266 7.265c1.25 1.25 2.031 2.97 2.031 4.766v6.172c0 .39-.312.625-.625.625-.39 0-.625-.234-.625-.625v-6.172c0-1.484-.625-2.89-1.64-3.906l-7.266-7.266c-.938-.937-2.422-.86-3.281.157-.782.859-.704 2.187.078 3.046l4.375 4.375.625.625a.613.613 0 0 1 0 .86.613.613 0 0 1-.86 0l-.625-.625-4.375-4.375-1.562-1.485a6.42 6.42 0 0 1-1.719-4.375V9.75c0-1.328-1.172-2.5-2.5-2.5-1.406 0-2.5 1.172-2.5 2.5v18.203c0 1.797.703 3.516 1.953 4.844l7.188 7.187a.613.613 0 0 1 0 .86.613.613 0 0 1-.86 0l-7.187-7.188C.859 32.172 0 30.063 0 27.953V9.75A3.75 3.75 0 0 1 3.75 6C5.781 6 7.5 7.719 7.5 9.75M46.25 6C48.281 6 50 7.719 50 9.75v18.203c0 2.11-.86 4.219-2.422 5.703l-7.187 7.188a.613.613 0 0 1-.86 0 .613.613 0 0 1 0-.86l7.188-7.187c1.25-1.328 2.031-3.047 2.031-4.844V9.75c0-1.328-1.172-2.5-2.5-2.5-1.406 0-2.5 1.172-2.5 2.5v11.484c0 1.641-.703 3.203-1.797 4.375l-1.562 1.485-4.375 4.375-.625.625a.613.613 0 0 1-.86 0 .613.613 0 0 1 0-.86l.625-.625 4.375-4.375c.86-.859.86-2.187.078-3.047-.78-1.015-2.343-1.093-3.28-.156l-7.267 7.266c-1.015 1.015-1.562 2.422-1.562 3.906v6.172c0 .39-.312.625-.625.625-.39 0-.625-.234-.625-.625v-6.172c0-1.797.703-3.516 1.953-4.766l7.266-7.265c1.406-1.485 3.75-1.328 5.078.156.547.625.781 1.25.86 1.953a4.7 4.7 0 0 0 1.093-3.047V9.75A3.75 3.75 0 0 1 46.25 6"/></svg>
